projects/Cat-energy/source/img/logotype-desktop-title.svg

<svg width="118" height="22" viewBox="0 0 118 22" fill="none" xmlns="http://www.w3.org/2000/svg">
<path d="M1.66421 19.6611C0.634036 18.1469 0.141461 16.3356 0.264212 14.5129V7.07347C0.13426 5.2374 0.61939 3.41017 1.64421 1.87576C2.57088 0.692055 4.15421 0.103512 6.39421 0.110124C8.63421 0.116737 10.1509 0.635847 10.9442 1.66745C11.9115 2.94585 12.3836 4.52647 12.2742 6.12122V7.86702H8.13421V5.97243C8.12863 5.47393 8.08517 4.97656 8.00421 4.48454C7.95415 4.12835 7.78928 3.79778 7.53421 3.5422C7.37675 3.40826 7.19394 3.30681 6.99648 3.24379C6.79902 3.18077 6.59086 3.15745 6.38421 3.17519C6.08741 3.13125 5.78418 3.1791 5.51578 3.31222C5.24738 3.44533 5.02685 3.65725 4.88421 3.91913C4.62127 4.61574 4.50555 5.35854 4.54421 6.10138V15.5446C4.49859 16.2923 4.63224 17.0402 4.93421 17.7268C5.07849 17.9745 5.29259 18.175 5.55019 18.3037C5.80779 18.4323 6.09767 18.4835 6.38421 18.4509C6.66576 18.4904 6.95271 18.4407 7.20411 18.3089C7.4555 18.1771 7.65852 17.9699 7.78421 17.7169C8.0261 17.019 8.13132 16.2816 8.0942 15.5446V13.5607H12.2342V15.2767C12.3561 16.895 11.9226 18.5066 11.0042 19.8495C10.1242 20.9407 8.60421 21.4763 6.44421 21.4763C4.28421 21.4763 2.59421 20.8811 1.66421 19.6611Z" fill="#111111"/>
<path d="M17.9149 0.397781H22.6549L26.6549 21.2283H22.7149L22.0049 16.6258H18.6849L17.8849 21.1986H13.8849L17.9149 0.397781ZM21.5649 14.0071L20.3049 5.63517L19.0549 14.0071H21.5649Z" fill="#111111"/>
<path d="M29.7255 3.53228H26.4855V0.397781H37.2055V3.53228H34.0055V21.1986H29.7155L29.7255 3.53228Z" fill="#111111"/>
<path d="M45.6165 0.397781H53.7465V2.56019H48.5464V9.43426H52.7664V11.4876H48.5464V19.1155H53.7964V21.1986H45.6165V0.397781Z" fill="#444444"/>
<path d="M56.157 0.397781H58.157L64.157 14.2154V0.397781H66.597V21.2283H64.727L58.727 7.02387V21.1986H56.247L56.157 0.397781Z" fill="#444444"/>
<path d="M69.8276 0.397781H77.9476V2.56019H72.7476V9.43426H77.0076V11.4876H72.7876V19.1155H78.0076V21.1986H69.8276V0.397781Z" fill="#444444"/>
<path d="M80.3582 0.397779H84.5782C86.2412 0.265036 87.8973 0.72586 89.2482 1.69721C90.2482 2.56019 90.7381 3.96873 90.7381 5.92283C90.7381 8.56798 89.8748 10.1848 88.1481 10.7734L91.1481 21.1986H88.3082L85.5582 11.438H83.2881V21.1986H80.3582V0.397779ZM84.3582 9.32515C85.3215 9.41761 86.2849 9.14863 87.0582 8.57128C87.3724 8.20237 87.6073 7.77358 87.7483 7.3113C87.8893 6.84902 87.9335 6.363 87.8781 5.88315C87.8982 5.21019 87.8001 4.53888 87.5882 3.89929C87.5022 3.66346 87.3694 3.44713 87.1976 3.26312C87.0258 3.07911 86.8186 2.93115 86.5882 2.82801C85.939 2.56382 85.2389 2.44526 84.5381 2.48083H83.2482V9.36483L84.3582 9.32515Z" fill="#444444"/>
<path d="M94.6788 19.6611C93.7229 18.0607 93.28 16.21 93.4088 14.3542V7.41073C93.3743 6.07079 93.5429 4.73331 93.9088 3.44301C94.1976 2.47296 94.8114 1.62966 95.6488 1.05246C96.6598 0.44812 97.8301 0.157915 99.0088 0.219237C99.7713 0.14731 100.54 0.241422 101.262 0.494993C101.984 0.748564 102.642 1.15548 103.189 1.68729C104.148 3.02049 104.602 4.64721 104.469 6.27993V7.05364H101.719V6.40888C101.738 5.63772 101.677 4.86667 101.539 4.1076C101.448 3.62113 101.177 3.18598 100.779 2.88753C100.26 2.58364 99.6603 2.44192 99.0588 2.48084C98.4056 2.42541 97.7563 2.62467 97.2488 3.03632C96.8341 3.42666 96.563 3.94346 96.4788 4.50437C96.3521 5.32146 96.2953 6.1477 96.3088 6.97428V14.7014C96.2294 15.8756 96.4316 17.0518 96.8988 18.1335C97.1702 18.4662 97.5146 18.7329 97.9058 18.9133C98.2969 19.0937 98.7245 19.183 99.1558 19.1744C99.5871 19.1658 100.011 19.0595 100.394 18.8636C100.778 18.6677 101.111 18.3874 101.369 18.0442C101.851 16.9001 102.059 15.661 101.979 14.4237V12.9556H99.3188V10.9023H104.619V21.1986H102.809L102.519 18.808C102.29 19.6022 101.796 20.2962 101.119 20.777C100.442 21.2578 99.6206 21.4973 98.7888 21.4565C98.0067 21.5249 97.2199 21.3961 96.5014 21.0823C95.7829 20.7684 95.1559 20.2795 94.6788 19.6611Z" fill="#444444"/>
<path d="M110.699 13.8583L106.169 0.397781H108.889L112.099 10.4361L115.259 0.397781H118.009L113.509 13.8583V21.1986H110.709L110.699 13.8583Z" fill="#444444"/>
</svg>

<svg width="118" height="22" fill="none" xmlns="http://www.w3.org/2000/svg"><path d="M1.664 19.661a8.174 8.174 0 0 1-1.4-5.148v-7.44a8.3 8.3 0 0 1 1.38-5.197C2.571.692 4.154.104 6.394.11c2.24.007 3.757.526 4.55 1.557a6.628 6.628 0 0 1 1.33 4.454v1.746h-4.14V5.972a9.842 9.842 0 0 0-.13-1.487 1.661 1.661 0 0 0-.47-.943 1.564 1.564 0 0 0-1.15-.367 1.47 1.47 0 0 0-1.5.744 5.386 5.386 0 0 0-.34 2.182v9.444a4.708 4.708 0 0 0 .39 2.182 1.49 1.49 0 0 0 1.45.724c.282.04.569-.01.82-.142.252-.132.455-.34.58-.592a5.75 5.75 0 0 0 .31-2.172V13.56h4.14v1.716a7.147 7.147 0 0 1-1.23 4.572c-.88 1.092-2.4 1.627-4.56 1.627-2.16 0-3.85-.595-4.78-1.815ZM17.915.398h4.74l4 20.83h-3.94l-.71-4.602h-3.32l-.8 4.573h-4L17.915.398Zm3.65 13.61-1.26-8.373-1.25 8.372h2.51ZM29.726 3.532h-3.24V.398h10.72v3.134h-3.2V21.2h-4.29l.01-17.667Z" fill="#111"/><path d="M45.617.398h8.13V2.56h-5.2v6.874h4.22v2.054h-4.22v7.628h5.25v2.083h-8.18V.398ZM56.157.398h2l6 13.817V.398h2.44v20.83h-1.87l-6-14.204v14.175h-2.48L56.157.398ZM69.828.398h8.12V2.56h-5.2v6.874h4.26v2.054h-4.22v7.628h5.22v2.083h-8.18V.398ZM80.358.398h4.22a7.042 7.042 0 0 1 4.67 1.3c1 .862 1.49 2.27 1.49 4.225 0 2.645-.863 4.262-2.59 4.85l3 10.426h-2.84l-2.75-9.761h-2.27v9.76h-2.93V.399Zm4 8.927a3.893 3.893 0 0 0 2.7-.754 3.533 3.533 0 0 0 .82-2.688 5.76 5.76 0 0 0-.29-1.984 1.872 1.872 0 0 0-1-1.071 4.795 4.795 0 0 0-2.05-.347h-1.29v6.884l1.11-.04ZM94.679 19.661a9.116 9.116 0 0 1-1.27-5.307V7.411c-.035-1.34.134-2.678.5-3.968a4.445 4.445 0 0 1 1.74-2.39 5.948 5.948 0 0 1 3.36-.834 5.298 5.298 0 0 1 4.18 1.468 6.904 6.904 0 0 1 1.28 4.593v.774h-2.75v-.645a11.309 11.309 0 0 0-.18-2.301 1.98 1.98 0 0 0-.76-1.22 3.02 3.02 0 0 0-1.72-.407 2.534 2.534 0 0 0-1.81.555c-.415.39-.686.907-.77 1.468a14.566 14.566 0 0 0-.17 2.47v7.727a7.396 7.396 0 0 0 .59 3.433 2.85 2.85 0 0 0 4.47-.09 7.994 7.994 0 0 0 .61-3.62v-1.468h-2.66v-2.054h5.3V21.2h-1.81l-.29-2.391a3.661 3.661 0 0 1-1.4 1.969c-.677.48-1.498.72-2.33.68a4.694 4.694 0 0 1-2.288-.375 4.655 4.655 0 0 1-1.822-1.42ZM110.699 13.858l-4.53-13.46h2.72l3.21 10.038 3.16-10.038h2.75l-4.5 13.46v7.34h-2.8l-.01-7.34Z" fill="#444"/></svg>
